X:111 
T:Lord Banff's Reel 
S:Grier MS
F:file ID: cre.4/111lord_b
B:CRE4.127 (RÃÂÃÂÃÂÃÂ­l an Tiarna Banff)
N:First four notes of my mm 1 and 3 have been raised an octave.
Q:180
L:1/8
M:4/4
R:reel
K:D % source key E
dBAB D2 FB|ADFD EDB,E|dBAB D2 FB|AFEF D/E/DD2:|
dfaf gfed|egfd eB B2|dfaf gfed|edfe d/e/dd2|
d2 a2 g2 f2|egfd ecdB|A2AG FAdB|AFEF D/E/DD2 ||

%%%

